X: 514
T: Aaron's Key
R: jig
M: 6/8
K: Bminor
E|F2B Bcd|cAA ABc|d2B Bcd|edc BAG|
F2B Bcd|cAA ABc|dcd ede|fdB B2A|
F2B Bcd|cAA ABc|d2B Bcd|efd efg|
~f3 fed|cAA ABc|dcd ede|fdB B2c||
|:d2A def|ecA ~a3|~f3 fed|cde ABc|
BFB cFc|dB/c/d efg|fed cBA|1 ~B3 B2c:|2 ~B3 B2A||

